X: 2
T:Aires de Pontevedra
M:C|
L:1/8
R:Reel
K:A
ee |: aa ee c2 de | fedc B3c | dedc B2 cd | eedB BAce |!
        aa ee c2 de | fedc B3c | dcde fecA |1 edBe A3 ce :|2 edBe A3 Bc
|!
|: dcdB cABc | dcdB cA B/2c/2d |  ecdB cABc |  dGBd cAce |!
   g4 gfge |  agfe dcde | d3c dcde | agfe dcde |!
  Bc3 cGce |  agfe dcde | AB3 cecA |  cecA B/2c/2dBG |!
  BBe2A4 e2 :|  Z ||!
% Output from ABC2Win  Version 2.1 i on 3/14/2003
